web/packages/design/src/ResourceIcon/assets/hootsuite.svg

<svg width="72" height="72" viewBox="0 0 72 72" fill="none" xmlns="http://www.w3.org/2000/svg">
<g clip-path="url(#clip0_16877_15572)">
<path d="M35.8336 8.94334C28.2165 8.88877 19.7468 13.5795 13.549 20.5476C9.05805 25.6026 3.40253 39.5728 0.628472 46.8655C-0.548507 49.9693 0.0072561 53.4645 2.08892 56.0501C6.97406 62.0691 17.1419 71.8628 36.8271 71.9991C54.8582 72.1271 64.0488 64.0975 68.3584 58.1994C70.7459 54.9282 71.4812 50.7347 70.3489 46.8464C68.4316 40.2627 64.417 28.8763 57.8176 21.0071C50.2877 12.0435 43.4435 8.99608 35.8336 8.94334Z" fill="#FF4C46"/>
<path d="M42.2573 27.2316C53.4162 19.4678 59.4656 26.2071 62.8599 33.6831C65.312 39.071 66.1803 49.1583 58.2201 50.7041C52.1225 51.8932 46.4881 45.7156 42.3211 39.9479C41.8933 39.3573 41.0677 39.2252 40.477 39.653C40.3657 39.7336 40.2678 39.8311 40.1866 39.9418C37.4407 43.7281 30.5679 55.1071 20.2964 52.299C10.5831 49.6399 8.44888 38.7137 12.4884 31.1608C18.466 19.7719 27.1984 16.0611 42.2573 27.2316Z" fill="white"/>
<path d="M36.2861 51.7167C37.5632 53.1234 40.2281 55.988 41.8237 57.3591C42.1309 57.6252 42.5941 57.5983 42.8684 57.2984L47.1601 52.5722C47.2229 52.5181 47.23 52.4234 47.1759 52.3606C47.1321 52.3096 47.0598 52.294 46.9989 52.3224C43.5395 53.628 39.6774 53.318 36.4706 51.4771C36.3895 51.4455 36.2982 51.4856 36.2666 51.5667C36.2471 51.6168 36.2544 51.6733 36.2861 51.7167Z" fill="white"/>
<path d="M40.6112 42.9129L36.2294 47.9955C36.0311 48.2183 36.051 48.5598 36.2739 48.7581C36.2869 48.7697 36.3004 48.7807 36.3145 48.7909C37.3078 49.5144 39.7344 51.0881 42.1055 51.1076C43.9067 51.0661 45.6756 50.6196 47.2808 49.8013C47.5454 49.6634 47.6482 49.3373 47.5104 49.0727C47.4906 49.0346 47.4662 48.9988 47.4379 48.9665L42.1035 42.8879C41.7158 42.4847 41.0745 42.4722 40.6713 42.8599C40.6531 42.8775 40.6354 42.8958 40.6185 42.9147L40.6112 42.9129Z" fill="white"/>
<path d="M55.2695 34.0451C56.5599 36.0482 55.9821 38.7179 53.979 40.0082C51.976 41.2985 49.3063 40.7207 48.016 38.7177C46.7381 36.734 47.2911 34.0918 49.2572 32.787C51.1307 31.4461 53.7364 31.8778 55.0773 33.7512C55.1455 33.8465 55.2096 33.9445 55.2695 34.0451Z" fill="#FF4C46"/>
<path d="M40.1995 27.2293C41.4281 28.2053 43.1293 28.3287 44.4858 27.54L71.6082 11.7424C71.9628 11.5279 72.0762 11.0666 71.8617 10.712C71.7196 10.4771 71.4606 10.3387 71.1864 10.3509L41.8275 12.7818L8.34119 0.0518968C7.87637 -0.112628 7.36614 0.130813 7.20162 0.595635C7.07653 0.948959 7.18546 1.34276 7.47432 1.58162L40.1995 27.2293Z" fill="#FF4C46"/>
<path d="M28.2331 31.6473C25.9876 32.4127 24.8712 34.7976 25.5403 37.0187C26.3057 39.2641 28.6906 40.3805 30.9116 39.7115C33.1571 38.946 34.2552 36.531 33.6044 34.3402C33.6105 34.3257 33.5959 34.2844 33.5685 34.2348C32.8775 32.073 30.6714 30.9306 28.5711 31.5277C28.4747 31.5032 28.3539 31.5752 28.2331 31.6473Z" fill="#FF4C46"/>
</g>
<defs>
<clipPath id="clip0_16877_15572">
<rect width="72" height="72" fill="white" transform="translate(0 0.000488281)"/>
</clipPath>
</defs>
</svg>

<svg xmlns="http://www.w3.org/2000/svg" width="72" height="72" fill="none" viewBox="0 0 72 72"><g clip-path="url(#a)"><path fill="#ff4c46" d="M35.834 8.943c-7.618-.054-16.087 4.637-22.285 11.605C9.059 25.603 3.403 39.573.629 46.866a9.36 9.36 0 0 0 1.46 9.184C6.974 62.07 17.142 71.863 36.827 72c18.031.127 27.222-7.903 31.531-13.8a13.06 13.06 0 0 0 1.99-11.354c-1.916-6.583-5.931-17.97-12.53-25.839-7.53-8.964-14.374-12.01-21.984-12.064"/><path fill="#fff" d="M42.257 27.232c11.16-7.764 17.209-1.025 20.603 6.451 2.452 5.388 3.32 15.475-4.64 17.021-6.097 1.19-11.732-4.988-15.899-10.756a1.32 1.32 0 0 0-2.134-.006c-2.746 3.786-9.62 15.165-19.89 12.357-9.714-2.66-11.848-13.585-7.809-21.138 5.978-11.39 14.71-15.1 29.77-3.93"/><path fill="#fff" d="M36.286 51.717c1.277 1.406 3.942 4.271 5.538 5.642a.75.75 0 0 0 1.044-.06l4.292-4.727a.15.15 0 0 0-.161-.25 12.37 12.37 0 0 1-10.528-.845.158.158 0 0 0-.185.24m4.325-8.804-4.382 5.083a.54.54 0 0 0 .086.795c.993.723 3.42 2.297 5.79 2.317a12 12 0 0 0 5.176-1.307.54.54 0 0 0 .157-.834l-5.335-6.08a1.013 1.013 0 0 0-1.485.028z"/><path fill="#ff4c46" d="M55.27 34.045a4.314 4.314 0 1 1-6.013-1.258 4.17 4.17 0 0 1 6.013 1.258M40.2 27.23a3.81 3.81 0 0 0 4.286.31l27.122-15.798a.75.75 0 0 0-.422-1.391l-29.359 2.43L8.342.052a.893.893 0 0 0-.867 1.53zm-11.967 4.417c-2.245.766-3.362 3.15-2.693 5.372.766 2.245 3.15 3.361 5.372 2.693 2.245-.766 3.343-3.181 2.692-5.372.007-.014-.008-.056-.035-.105-.692-2.162-2.898-3.304-4.998-2.707-.096-.025-.217.047-.338.12"/></g><defs><clipPath id="a"><path fill="#fff" d="M0 0h72v72H0z"/></clipPath></defs></svg>
